X:1
T:Hammarslungan
R:Gnglt, Slunga
N:Spelas ofta till dans.
O:Torsker, Gstrikland
S:efter Hammarbergs-Hans
M:2/4
L:1/16
K:G
D2B2 D2B2|D2B2 c3B|BA^GA B3A|AGFG A2G2|
D2B2 D2B2|D2B2 c3B|BA^GA B2DF|A2G2G4:|
B2B2 d3G|B2A2 ABcd|e2dB c2AF|GABc dedc|
B2B2 d3G|B2A2 ABcd|e2dB c2AF|A2G2 G4:|
